src/assets/img/providers-white/greentube.svg

<svg width="116" height="26" viewBox="0 0 116 26" fill="none" xmlns="http://www.w3.org/2000/svg">
<path fill-rule="evenodd" clip-rule="evenodd" d="M91.8472 11.353C91.8472 13.1531 93.3167 14.6259 95.1126 14.6259C96.9086 14.6259 98.378 13.1531 98.378 11.353C98.378 9.55287 96.9086 8.08005 95.1126 8.08005C93.3167 8.08005 91.8472 9.55287 91.8472 11.353ZM91.8472 5.56398C92.8064 5.01168 93.9289 4.70484 95.1126 4.70484C98.7658 4.70484 101.725 7.69139 101.725 11.353C101.725 15.0146 98.7454 18.0011 95.0922 18.0011C91.4391 18.0011 88.4594 15.0146 88.4594 11.353V0H91.8472V5.56398ZM18.2541 18.0017H14.8867V11.2513C14.8867 7.58972 17.8663 4.60317 21.5195 4.60317V7.99884C19.7235 7.99884 18.2541 9.47166 18.2541 11.2718V18.0017ZM3.55848 11.312C3.55848 13.1325 5.02791 14.6054 6.84428 14.6054C8.64025 14.6054 10.1097 13.1325 10.1301 11.312C10.1301 9.49141 8.66066 8.01859 6.84428 8.01859C5.02791 8.01859 3.55848 9.49141 3.55848 11.312ZM10.1301 4.62292H13.5179V11.2711V11.312C13.5179 14.994 10.5383 18.001 6.84428 18.001C3.1503 18.001 0.170627 15.0145 0.170627 11.3324C0.170627 7.65038 3.17071 4.64338 6.84428 4.64338C8.0484 4.64338 9.15047 4.95021 10.1301 5.50252V4.62292ZM0.150879 26.0003H3.53873C3.53873 24.2002 4.98775 22.7273 6.78372 22.7478H13.5186V19.3521H6.78372C3.13055 19.3521 0.150879 22.3387 0.150879 26.0003ZM73.623 11.3529C73.623 15.0145 76.6026 18.001 80.2762 18.001C83.9294 18.001 86.909 15.0145 86.9295 11.3529V4.62292H83.5416V11.3529C83.5416 13.153 82.0722 14.6258 80.2762 14.6258C78.4802 14.6258 77.0108 13.153 77.0108 11.3529V4.62292H73.623V11.3529ZM63.9076 18.0013H60.5605V11.2918C60.5605 9.49164 59.0911 8.01882 57.2951 8.01882C55.4992 8.01882 54.0297 9.49164 54.0297 11.2918V18.0013H50.6419V11.2918C50.6419 7.63016 53.6216 4.64361 57.2747 4.64361C60.9279 4.64361 63.9076 7.63016 63.9076 11.2918V18.0013ZM71.9491 8.01868V4.62302H68.6837V0H65.2959V11.3121C65.2959 14.9737 68.2756 17.9602 71.9287 17.9602V14.585C70.1327 14.585 68.6633 13.1122 68.6633 11.3121V8.01868H71.9491ZM35.2127 11.3538C35.2127 11.947 35.1311 12.5198 34.9882 13.0517H27.6411V9.65598H31.3351C30.7636 8.71502 29.7228 8.08088 28.5391 8.08088C26.7431 8.08088 25.2737 9.5537 25.2737 11.3538C25.2737 13.1539 26.7431 14.6267 28.5391 14.6267C29.2126 14.6267 29.8452 14.4222 30.3759 14.054H34.6209C33.6004 16.386 31.2534 18.002 28.5595 18.002C24.9063 18.002 21.9471 15.0154 21.9471 11.3538C21.9471 7.69222 24.9267 4.70567 28.5799 4.70567C32.2331 4.70567 35.2127 7.69222 35.2127 11.3538ZM42.0089 13.0517V9.65598H45.7029C45.1315 8.71502 44.0906 8.08088 42.9069 8.08088C41.1109 8.08088 39.6415 9.5537 39.6415 11.3538C39.6415 13.1539 41.1109 14.6267 42.9069 14.6267C43.5804 14.6267 44.2131 14.4222 44.7437 14.054H48.9887C47.9683 16.386 45.6417 18.002 42.9273 18.002C39.2742 18.002 36.2945 15.0154 36.2945 11.3538C36.2945 7.69222 39.2742 4.70567 42.9273 4.70567C46.5805 4.70567 49.5602 7.69222 49.5602 11.3538C49.5602 11.947 49.4785 12.4993 49.3357 13.0517H42.0089ZM108.297 13.0517H111.991H115.624C115.767 12.4993 115.849 11.947 115.849 11.3538C115.849 7.69222 112.869 4.70567 109.216 4.70567C105.542 4.70567 102.583 7.69222 102.583 11.3538C102.583 15.0154 105.563 18.002 109.216 18.002C111.91 18.002 114.236 16.386 115.277 14.054H111.032C110.502 14.4222 109.869 14.6267 109.195 14.6267C107.399 14.6267 105.93 13.1539 105.93 11.3538C105.93 9.5537 107.399 8.08088 109.195 8.08088C110.379 8.08088 111.42 8.71502 111.991 9.65598H108.297V13.0517Z" fill="white"/>
</svg>

<svg width="116" height="26" fill="none" xmlns="http://www.w3.org/2000/svg"><path fill-rule="evenodd" clip-rule="evenodd" d="M91.847 11.353c0 1.8 1.47 3.273 3.266 3.273a3.279 3.279 0 0 0 3.265-3.273c0-1.8-1.47-3.273-3.265-3.273a3.279 3.279 0 0 0-3.266 3.273Zm0-5.789a6.537 6.537 0 0 1 3.266-.86c3.653 0 6.612 2.987 6.612 6.649s-2.98 6.648-6.633 6.648-6.633-2.986-6.633-6.648V0h3.388v5.564ZM18.254 18.002h-3.367v-6.75c0-3.662 2.98-6.649 6.633-6.649V8a3.279 3.279 0 0 0-3.266 3.273v6.73Zm-14.696-6.69c0 1.82 1.47 3.293 3.286 3.293 1.796 0 3.266-1.473 3.286-3.293 0-1.82-1.47-3.293-3.286-3.293a3.287 3.287 0 0 0-3.286 3.293Zm6.572-6.69h3.388v6.69c0 3.682-2.98 6.689-6.674 6.689a6.666 6.666 0 0 1-6.673-6.669c0-3.682 3-6.689 6.673-6.689 1.204 0 2.306.307 3.286.86v-.88ZM.15 26H3.54c0-1.8 1.449-3.273 3.245-3.252h6.735v-3.396H6.784C3.13 19.352.15 22.34.15 26Zm73.473-14.647c0 3.662 2.98 6.648 6.653 6.648 3.653 0 6.633-2.987 6.654-6.648v-6.73h-3.388v6.73c0 1.8-1.47 3.273-3.266 3.273a3.279 3.279 0 0 1-3.265-3.273v-6.73h-3.388v6.73ZM63.908 18H60.56v-6.71c0-1.8-1.469-3.272-3.265-3.272a3.279 3.279 0 0 0-3.265 3.273v6.71h-3.388v-6.71c0-3.662 2.98-6.648 6.633-6.648s6.633 2.986 6.633 6.648v6.71Zm8.041-9.982V4.623h-3.265V0h-3.388v11.312c0 3.662 2.98 6.648 6.633 6.648v-3.375a3.279 3.279 0 0 1-3.266-3.273V8.02h3.286Zm-36.736 3.335c0 .593-.082 1.166-.225 1.698h-7.347V9.656h3.694a3.274 3.274 0 0 0-2.796-1.575 3.279 3.279 0 0 0-3.265 3.273c0 1.8 1.47 3.273 3.265 3.273.674 0 1.306-.205 1.837-.573h4.245a6.62 6.62 0 0 1-6.062 3.948c-3.653 0-6.612-2.987-6.612-6.648 0-3.662 2.98-6.648 6.633-6.648s6.633 2.986 6.633 6.648Zm6.796 1.698V9.656h3.694a3.273 3.273 0 0 0-2.796-1.575 3.279 3.279 0 0 0-3.265 3.273c0 1.8 1.469 3.273 3.265 3.273.673 0 1.306-.205 1.837-.573h4.245a6.598 6.598 0 0 1-6.062 3.948c-3.653 0-6.633-2.987-6.633-6.648 0-3.662 2.98-6.648 6.633-6.648 3.654 0 6.633 2.986 6.633 6.648 0 .593-.082 1.145-.224 1.698h-7.327Zm66.288 0h7.327a6.673 6.673 0 0 0 .225-1.698c0-3.662-2.98-6.648-6.633-6.648-3.674 0-6.633 2.986-6.633 6.648 0 3.661 2.98 6.648 6.633 6.648 2.694 0 5.02-1.616 6.061-3.948h-4.245a3.203 3.203 0 0 1-1.837.573 3.278 3.278 0 0 1-3.265-3.273c0-1.8 1.469-3.273 3.265-3.273 1.184 0 2.225.634 2.796 1.575h-3.694v3.396Z" fill="#fff"/></svg>
